!!!OTL: Shi er tiao shoujin
!!!ARE: Asia, China,ˇAnhui, Anqing
!! III, 584
!!!SCT: C1611
!!!YEM: Copyright 1995, estate of Helmut Schaffrath.
**kern
*ICvox
*Ivox
*M4/4
*k[f#c#g#]
*A:
{8cc#
4ee
8ff#
16ee
16ff#
16ee
16cc#
4b
=1
8cc#
16ee
16cc#
8.b
16cc#
16b
16a
16f#
16a
4f#}
=2
{8cc#
16cc#
16ee
8ff#
16ff#
16ee
8a
16ee
16cc#
8.b
16cc#
=3
8.a
16cc#
16b
16a
8f#
8e
4.e}
=4
{8cc#
4ee
8ff#
16ee
16ff#
16ee
16cc#
8.b
16cc#
=5
8a
8cc#
8.b
16cc#
8b
16b
16a
4f#}
=6
{8cc#
16b
16cc#
8b
16a
16f#
8.e
16ff#
4a
=7
16f#
16a
16b
16cc#
8a
16b
16a
4f#
4e}
==
!!!AGN: Xiaodiao, FunÅ qing
!!!AMT: simple quadruple
!!!AIN: vox
!!!EED: Helmut Schaffrath
!!!EEV: 1.0
*-
